;FLAVOR:Marlin
;TIME:4052
;Filament used: 1.21547m
;Layer height: 0.12
;MINX:126.409
;MINY:127.289
;MINZ:0.12
;MAXX:170.119
;MAXY:167.819
;MAXZ:28.92
;Generated with Cura_SteamEngine 4.11.0
M140 S75
M105
M190 S75
M104 S210
M105
M109 S210
M82 ;absolute extrusion mode
M201 X500.00 Y500.00 Z100.00 E5000.00 ;Setup machine max acceleration
M203 X500.00 Y500.00 Z10.00 E50.00 ;Setup machine max feedrate
M204 P500.00 R1000.00 T500.00 ;Setup Print/Retract/Travel acceleration
M205 X8.00 Y8.00 Z0.40 E5.00 ;Setup Jerk
M220 S100 ;Reset Feedrate
M221 S100 ;Reset Flowrate

G28 ;Home

G92 E0 ;Reset Extruder
G1 Z2.0 F3000 ;Move Z Axis up
G1 X10.1 Y20 Z0.28 F5000.0 ;Move to start position
G1 X10.1 Y200.0 Z0.28 F1500.0 E15 ;Draw the first line
G1 X10.4 Y200.0 Z0.28 F5000.0 ;Move to side a little
G1 X10.4 Y20 Z0.28 F1500.0 E30 ;Draw the second line
G92 E0 ;Reset Extruder
G1 Z2.0 F3000 ;Move Z Axis up

G92 E0
G92 E0
G1 F2700 E-5
;LAYER_COUNT:241
;LAYER:0
M107
G0 F6000 X129.514 Y130.558 Z0.12
;TYPE:SKIRT
G1 F2700 E0
G1 F1200 X130.236 Y129.963 E0.0196
G1 X131.855 Y128.784 E0.06157
G1 X132.516 Y128.352 E0.07812
G1 X133.218 Y127.989 E0.09468
G1 X133.952 Y127.699 E0.11121
G1 X134.712 Y127.484 E0.12776
G1 X135.49 Y127.348 E0.14431
G1 X136.447 Y127.289 E0.1644
G1 X138.447 Y127.289 E0.20631
G1 X139.236 Y127.329 E0.22287
G1 X140.016 Y127.448 E0.2394
G1 X140.781 Y127.646 E0.25596
G1 X141.521 Y127.92 E0.27249
G1 X142.23 Y128.268 E0.28904
G1 X143.039 Y128.784 E0.30915
G1 X144.658 Y129.963 E0.35111
G1 X145.024 Y130.259 E0.36098
G1 X145.359 Y130.276 E0.36801
G1 X146.139 Y130.395 E0.38454
G1 X146.904 Y130.593 E0.4011
G1 X147.644 Y130.867 E0.41763
G1 X148.353 Y131.215 E0.43418
G1 X149.024 Y131.633 E0.45075
G1 X149.648 Y132.116 E0.46728
G1 X150.079 Y132.514 E0.47957
G1 X150.517 Y132.951 E0.49254
G1 X151.047 Y133.537 E0.50909
G1 X151.515 Y134.173 E0.52564
G1 X151.917 Y134.853 E0.54219
G1 X152.248 Y135.57 E0.55874
G1 X152.504 Y136.317 E0.57529
G1 X152.684 Y137.086 E0.59183
G1 X152.785 Y137.869 E0.60838
G1 X152.793 Y138.085 E0.61291
G1 X153.187 Y137.588 E0.6262
G1 X153.737 Y137.021 E0.64275
G1 X154.463 Y136.422 E0.66247
G1 X155.34 Y135.784 E0.68519
G1 X156.002 Y135.353 E0.70175
G1 X156.703 Y134.99 E0.71829
G1 X157.438 Y134.701 E0.73484
G1 X158.198 Y134.487 E0.75138
G1 X158.976 Y134.35 E0.76793
G1 X159.929 Y134.292 E0.78794
G1 X161.011 Y134.292 E0.81061
G1 X161.8 Y134.332 E0.82717
G1 X162.58 Y134.451 E0.8437
G1 X163.345 Y134.649 E0.86026
G1 X164.085 Y134.923 E0.87679
G1 X164.794 Y135.271 E0.89334
G1 X165.757 Y135.902 E0.91747
G1 X166.73 Y136.648 E0.94316
G1 X167.331 Y137.16 E0.9597
G1 X167.878 Y137.729 E0.97624
G1 X168.365 Y138.352 E0.99281
G1 X168.785 Y139.02 E1.00934
G1 X169.137 Y139.727 E1.02589
G1 X169.4 Y140.421 E1.04144
G1 X169.735 Y141.449 E1.0641
G1 X169.942 Y142.212 E1.08066
G1 X170.07 Y142.991 E1.09721
G1 X170.119 Y143.779 E1.11375
G1 X170.087 Y144.568 E1.1303
G1 X169.993 Y145.262 E1.14497
G1 X169.887 Y145.847 E1.15743
G1 X169.796 Y147.528 E1.1927
G1 X169.713 Y148.313 E1.20924
G1 X169.556 Y149.071 E1.22546
G1 X168.963 Y151.352 E1.27485
G1 X168.726 Y152.105 E1.29139
G1 X168.304 Y153.046 E1.313
G1 X167.227 Y155.075 E1.36113
G1 X166.92 Y155.602 E1.37391
G1 X165.673 Y157.564 E1.42263
G1 X164.913 Y158.78 E1.45267
G1 X164.46 Y159.428 E1.46924
G1 X163.945 Y160.026 E1.48578
G1 X163.335 Y160.602 E1.50336
G1 X161.395 Y162.242 E1.55659
G1 X160.446 Y162.929 E1.58113
G1 X158.44 Y164.163 E1.63048
G1 X158.018 Y164.394 E1.64056
G1 X157.961 Y164.471 E1.64257
G1 X157.432 Y165.057 E1.65911
G1 X156.846 Y165.586 E1.67566
G1 X156.51 Y165.845 E1.68455
G1 X155.854 Y166.323 E1.70155
G1 X155.194 Y166.755 E1.71808
G1 X154.492 Y167.118 E1.73464
G1 X153.758 Y167.409 E1.75119
G1 X152.998 Y167.623 E1.76773
G1 X152.22 Y167.76 E1.78428
G1 X151.261 Y167.819 E1.80442
G1 X150.451 Y167.819 E1.82139
G1 X149.662 Y167.779 E1.83794
G1 X148.882 Y167.66 E1.85448
G1 X148.117 Y167.462 E1.87103
G1 X147.377 Y167.188 E1.88757
G1 X146.668 Y166.84 E1.90412
G1 X146.162 Y166.517 E1.9167
G1 X145.146 Y166.517 E1.93799
G1 X144.357 Y166.477 E1.95454
G1 X143.577 Y166.358 E1.97107
G1 X142.812 Y166.16 E1.98763
G1 X142.072 Y165.886 E2.00417
G1 X141.363 Y165.538 E2.02072
G1 X140.556 Y165.024 E2.04076
G1 X139.59 Y164.321 E2.0658
G1 X138.976 Y163.824 E2.08235
G1 X138.415 Y163.268 E2.0989
G1 X137.914 Y162.659 E2.11542
G1 X137.476 Y162.001 E2.13199
G1 X137.107 Y161.303 E2.14853
G1 X136.762 Y160.424 E2.16832
G1 X136.394 Y159.291 E2.19328
G1 X136.188 Y158.528 E2.20984
G1 X136.06 Y157.749 E2.22638
G1 X136.012 Y156.961 E2.24292
G1 X136.044 Y156.172 E2.25947
G1 X136.156 Y155.39 E2.27602
G1 X136.346 Y154.623 E2.29258
G1 X136.54 Y154.06 E2.30506
G1 X136.85 Y153.261 E2.32302
G1 X136.368 Y153.187 E2.33323
G1 X135.603 Y152.989 E2.34979
G1 X134.863 Y152.715 E2.36633
G1 X134.154 Y152.367 E2.38288
G1 X133.483 Y151.949 E2.39944
G1 X132.859 Y151.466 E2.41598
G1 X132.422 Y151.061 E2.42846
G1 X131.985 Y150.624 E2.44141
G1 X131.455 Y150.038 E2.45797
G1 X130.988 Y149.402 E2.4745
G1 X130.587 Y148.722 E2.49104
G1 X130.257 Y148.004 E2.5076
G1 X130.002 Y147.257 E2.52414
G1 X129.823 Y146.488 E2.54068
G1 X129.759 Y145.988 E2.55125
G1 X129.622 Y145.877 E2.55494
G1 X129.062 Y145.321 E2.57148
G1 X128.56 Y144.711 E2.58803
G1 X128.123 Y144.053 E2.60458
G1 X127.754 Y143.355 E2.62112
G1 X127.412 Y142.484 E2.64073
G1 X126.793 Y140.584 E2.6826
G1 X126.586 Y139.822 E2.69915
G1 X126.458 Y139.043 E2.71569
G1 X126.409 Y138.255 E2.73223
G1 X126.441 Y137.465 E2.7488
G1 X126.552 Y136.684 E2.76533
G1 X126.793 Y135.752 E2.7855
G1 X127.412 Y133.852 E2.82737
G1 X127.694 Y133.114 E2.84393
G1 X128.049 Y132.409 E2.86047
G1 X128.474 Y131.744 E2.87701
G1 X128.964 Y131.124 E2.89356
G1 X129.514 Y130.558 E2.9101
G0 F6000 X129.861 Y130.783
G1 F1200 X130.472 Y130.286 E2.92661
G1 X132.091 Y129.107 E2.96857
G1 X132.735 Y128.687 E2.98468
G1 X133.42 Y128.337 E3.0008
G1 X134.137 Y128.059 E3.01691
G1 X134.879 Y127.857 E3.03303
G1 X135.638 Y127.733 E3.04914
G1 X136.447 Y127.689 E3.06612
G1 X138.447 Y127.689 E3.10803
G1 X139.215 Y127.729 E3.12414
G1 X139.975 Y127.848 E3.14026
G1 X140.718 Y128.046 E3.15637
G1 X141.437 Y128.32 E3.1725
G1 X142.123 Y128.667 E3.1886
G1 X142.803 Y129.107 E3.20558
G1 X144.422 Y130.286 E3.24754
G1 X144.873 Y130.652 E3.25971
G1 X145.338 Y130.676 E3.26947
G1 X146.098 Y130.795 E3.28559
G1 X146.841 Y130.993 E3.3017
G1 X147.56 Y131.267 E3.31782
G1 X148.246 Y131.614 E3.33393
G1 X148.893 Y132.03 E3.35005
G1 X149.493 Y132.511 E3.36616
G1 X149.797 Y132.797 E3.37491
G1 X150.235 Y133.234 E3.38787
G1 X150.75 Y133.805 E3.40399
G1 X151.204 Y134.426 E3.4201
G1 X151.59 Y135.091 E3.43622
G1 X151.906 Y135.793 E3.45235
G1 X152.147 Y136.523 E3.46846
G1 X152.31 Y137.275 E3.48458
G1 X152.395 Y138.039 E3.50069
G1 X152.408 Y138.473 E3.50978
G1 X152.408 Y138.639 E3.51326
G1 X152.368 Y139.407 E3.52938
G1 X152.331 Y139.642 E3.53436
G1 X152.64 Y139.036 E3.54862
G1 X153.058 Y138.39 E3.56474
G1 X153.541 Y137.791 E3.58086
G1 X154.083 Y137.246 E3.59697
G1 X154.699 Y136.746 E3.61359
G1 X155.576 Y136.108 E3.63632
G1 X156.22 Y135.688 E3.65243
G1 X156.905 Y135.338 E3.66855
G1 X157.622 Y135.061 E3.68465
G1 X158.365 Y134.859 E3.70079
G1 X159.124 Y134.736 E3.7169
G1 X159.929 Y134.692 E3.73379
G1 X161.011 Y134.692 E3.75646
G1 X161.779 Y134.732 E3.77258
G1 X162.539 Y134.851 E3.7887
G1 X163.282 Y135.049 E3.80481
G1 X164.001 Y135.323 E3.82093
G1 X164.687 Y135.67 E3.83704
G1 X165.514 Y136.219 E3.85784
G1 X166.487 Y136.965 E3.88353
G1 X167.072 Y137.464 E3.89964
G1 X167.602 Y138.022 E3.91577
G1 X168.072 Y138.631 E3.93189
G1 X168.475 Y139.285 E3.94798
G1 X168.809 Y139.978 E3.9641
G1 X169.02 Y140.545 E3.97678
G1 X169.355 Y141.573 E3.99944
G1 X169.555 Y142.316 E4.01556
G1 X169.677 Y143.075 E4.03167
G1 X169.719 Y143.843 E4.04778
G1 X169.681 Y144.612 E4.06392
G1 X169.6 Y145.19 E4.07615
G1 X169.488 Y145.806 E4.08926
G1 X169.396 Y147.506 E4.12494
G1 X169.315 Y148.271 E4.14106
G1 X169.169 Y148.97 E4.15602
G1 X168.576 Y151.251 E4.20541
G1 X168.344 Y151.984 E4.22152
G1 X167.95 Y152.858 E4.2416
G1 X166.873 Y154.887 E4.28974
G1 X166.582 Y155.387 E4.30186
G1 X165.335 Y157.349 E4.35057
G1 X164.573 Y158.568 E4.3807
G1 X164.132 Y159.198 E4.39681
G1 X163.628 Y159.779 E4.41293
G1 X163.076 Y160.296 E4.42877
G1 X161.136 Y161.936 E4.482
G1 X160.236 Y162.588 E4.50529
G1 X158.23 Y163.822 E4.55464
G1 X157.745 Y164.086 E4.56621
G1 X157.588 Y164.295 E4.57169
G1 X157.064 Y164.858 E4.5878
G1 X156.275 Y165.522 E4.60941
G1 X155.619 Y166 E4.62642
G1 X154.975 Y166.42 E4.64253
G1 X154.29 Y166.771 E4.65866
G1 X153.573 Y167.049 E4.67477
G1 X152.831 Y167.251 E4.69089
G1 X152.072 Y167.374 E4.707
G1 X151.261 Y167.419 E4.72402
G1 X150.451 Y167.419 E4.74099
G1 X149.683 Y167.379 E4.7571
G1 X148.923 Y167.26 E4.77322
G1 X148.18 Y167.062 E4.78933
G1 X147.461 Y166.788 E4.80546
G1 X146.775 Y166.441 E4.82157
G1 X146.273 Y166.117 E4.83409
G1 X145.146 Y166.117 E4.8577
G1 X144.378 Y166.077 E4.87381
G1 X143.618 Y165.958 E4.88993
G1 X142.875 Y165.76 E4.90605
G1 X142.156 Y165.486 E4.92217
G1 X141.47 Y165.139 E4.93828
G1 X140.792 Y164.7 E4.9552
G1 X139.826 Y163.997 E4.98024
G1 X139.228 Y163.513 E4.99636
G1 X138.684 Y162.969 E5.01248
G1 X138.199 Y162.372 E5.02859
G1 X137.779 Y161.728 E5.0447
G1 X137.428 Y161.043 E5.06083
G1 X137.142 Y160.3 E5.07751
G1 X136.774 Y159.167 E5.10248
G1 X136.575 Y158.424 E5.11859
G1 X136.454 Y157.665 E5.1347
G1 X136.412 Y156.896 E5.15084
G1 X136.45 Y156.128 E5.16695
G1 X136.568 Y155.368 E5.18306
G1 X136.764 Y154.624 E5.19919
G1 X136.913 Y154.205 E5.2085
G1 X137.389 Y152.978 E5.23608
G1 X137.416 Y152.919 E5.23744
G1 X137.169 Y152.906 E5.24262
G1 X136.409 Y152.787 E5.25874
G1 X135.666 Y152.589 E5.27486
G1 X134.947 Y152.315 E5.29098
G1 X134.261 Y151.968 E5.30709
G1 X133.614 Y151.552 E5.3232
G1 X133.014 Y151.071 E5.33932
G1 X132.704 Y150.779 E5.34824
G1 X132.267 Y150.342 E5.36119
G1 X131.753 Y149.77 E5.3773
G1 X131.3 Y149.148 E5.39343
G1 X130.914 Y148.483 E5.40954
G1 X130.599 Y147.781 E5.42566
G1 X130.359 Y147.05 E5.44178
G1 X130.196 Y146.299 E5.45789
G1 X130.139 Y145.78 E5.46883
G1 X129.874 Y145.565 E5.47598
G1 X129.331 Y145.022 E5.49207
G1 X128.846 Y144.424 E5.5082
G1 X128.426 Y143.78 E5.52431
G1 X128.076 Y143.095 E5.54043
G1 X127.792 Y142.36 E5.55694
G1 X127.173 Y140.46 E5.59881
G1 X126.973 Y139.718 E5.61492
G1 X126.851 Y138.958 E5.63105
G1 X126.809 Y138.19 E5.64716
G1 X126.847 Y137.422 E5.66327
G1 X126.964 Y136.662 E5.67939
G1 X127.173 Y135.876 E5.69643
G1 X127.792 Y133.976 E5.7383
G1 X128.068 Y133.258 E5.75442
G1 X128.417 Y132.572 E5.77055
G1 X128.835 Y131.927 E5.78665
G1 X129.318 Y131.328 E5.80278
G1 X129.861 Y130.783 E5.8189
G0 F6000 X130.206 Y131.011
G1 F1200 X130.707 Y130.609 E5.83236
G1 X132.326 Y129.43 E5.87432
G1 X132.954 Y129.023 E5.89
G1 X133.621 Y128.685 E5.90567
G1 X134.32 Y128.42 E5.92134
G1 X135.044 Y128.231 E5.93701
G1 X135.784 Y128.12 E5.95269
G1 X136.447 Y128.089 E5.9666
G1 X138.447 Y128.089 E6.00851
G1 X139.194 Y128.129 E6.02418
G1 X139.932 Y128.248 E6.03985
G1 X140.654 Y128.446 E6.05553
G1 X141.35 Y128.719 E6.0712
G1 X142.013 Y129.066 E6.08688
G1 X142.568 Y129.43 E6.10079
G1 X144.187 Y130.609 E6.14275
G1 X144.722 Y131.044 E6.1572
G1 X145.317 Y131.076 E6.16969
G1 X146.055 Y131.195 E6.18535
G1 X146.777 Y131.393 E6.20104
G1 X147.473 Y131.666 E6.21671
G1 X148.136 Y132.013 E6.23239
G1 X148.759 Y132.428 E6.24807
G1 X149.514 Y133.081 E6.26899
G1 X149.952 Y133.518 E6.28195
G1 X150.453 Y134.073 E6.29762
G1 X150.891 Y134.68 E6.3133
G1 X151.262 Y135.329 E6.32897
G1 X151.562 Y136.014 E6.34464
G1 X151.787 Y136.728 E6.36032
G1 X151.935 Y137.461 E6.37599
G1 X152.008 Y138.473 E6.39725
G1 X152.008 Y138.639 E6.40073
G1 X151.968 Y139.386 E6.41641
G1 X151.89 Y139.872 E6.42672
G1 X152.389 Y140.296 E6.44044
G1 X152.497 Y140.301 E6.44271
G1 X152.665 Y139.865 E6.4525
G1 X153.007 Y139.2 E6.46817
G1 X153.419 Y138.575 E6.48385
G1 X153.894 Y137.998 E6.49951
G1 X154.429 Y137.474 E6.5152
G1 X154.934 Y137.069 E6.52877
G1 X155.811 Y136.431 E6.55149
G1 X156.439 Y136.024 E6.56717
G1 X157.106 Y135.686 E6.58284
G1 X157.806 Y135.422 E6.59852
G1 X158.53 Y135.233 E6.6142
G1 X159.27 Y135.123 E6.62987
G1 X159.929 Y135.092 E6.6437
G1 X161.011 Y135.092 E6.66637
G1 X161.758 Y135.132 E6.68204
G1 X162.496 Y135.251 E6.69771
G1 X163.218 Y135.449 E6.7134
G1 X163.914 Y135.722 E6.72906
G1 X164.577 Y136.069 E6.74474
G1 X165.27 Y136.537 E6.76226
G1 X166.243 Y137.283 E6.78795
G1 X166.812 Y137.769 E6.80363
G1 X167.325 Y138.313 E6.8193
G1 X167.777 Y138.909 E6.83498
G1 X168.164 Y139.55 E6.85067
G1 X168.479 Y140.228 E6.86633
G1 X168.64 Y140.669 E6.87617
G1 X168.975 Y141.697 E6.89882
G1 X169.168 Y142.42 E6.9145
G1 X169.283 Y143.159 E6.93017
G1 X169.319 Y143.906 E6.94585
G1 X169.275 Y144.653 E6.96153
G1 X169.206 Y145.119 E6.9714
G1 X169.09 Y145.755 E6.98494
G1 X168.997 Y147.485 E7.02125
G1 X168.917 Y148.229 E7.03692
G1 X168.782 Y148.869 E7.05063
G1 X168.189 Y151.15 E7.10001
G1 X167.962 Y151.863 E7.11569
G1 X167.597 Y152.671 E7.13427
G1 X166.52 Y154.7 E7.18241
G1 X166.245 Y155.173 E7.19387
G1 X164.998 Y157.135 E7.24258
G1 X164.234 Y158.356 E7.27276
G1 X163.804 Y158.968 E7.28844
G1 X163.311 Y159.531 E7.30412
G1 X162.818 Y159.991 E7.31825
G1 X160.878 Y161.631 E7.37147
G1 X160.027 Y162.247 E7.39349
G1 X158.021 Y163.481 E7.44284
G1 X157.478 Y163.776 E7.45579
G1 X157.215 Y164.116 E7.46479
G1 X156.696 Y164.656 E7.48049
G1 X156.039 Y165.198 E7.49833
G1 X155.383 Y165.676 E7.51534
G1 X154.756 Y166.084 E7.53102
G1 X154.089 Y166.422 E7.54668
G1 X153.389 Y166.688 E7.56238
G1 X152.666 Y166.877 E7.57803
G1 X151.926 Y166.987 E7.59371
G1 X151.261 Y167.019 E7.60766
G1 X150.451 Y167.019 E7.62463
G1 X149.704 Y166.979 E7.64031
G1 X148.966 Y166.86 E7.65597
G1 X148.244 Y166.662 E7.67166
G1 X147.548 Y166.389 E7.68733
G1 X146.885 Y166.042 E7.70301
G1 X146.385 Y165.713 E7.71555
G1 X146.338 Y165.717 E7.71654
G1 X145.146 Y165.717 E7.74151
G1 X144.399 Y165.677 E7.75719
G1 X143.661 Y165.558 E7.77285
G1 X142.939 Y165.36 E7.78854
G1 X142.243 Y165.087 E7.8042
G1 X141.58 Y164.74 E7.81988
G1 X141.027 Y164.377 E7.83375
G1 X140.061 Y163.674 E7.85878
G1 X139.481 Y163.202 E7.87445
G1 X138.954 Y162.671 E7.89012
G1 X138.487 Y162.087 E7.90579
G1 X138.085 Y161.456 E7.92147
G1 X137.752 Y160.786 E7.93715
G1 X137.522 Y160.176 E7.95081
G1 X137.154 Y159.043 E7.97577
G1 X136.962 Y158.321 E7.99142
G1 X136.847 Y157.581 E8.00712
G1 X136.812 Y156.834 E8.02279
G1 X136.857 Y156.087 E8.03847
G1 X136.982 Y155.35 E8.05413
G1 X137.286 Y154.349 E8.07605
G1 X137.762 Y153.122 E8.10363
G1 X138.021 Y152.546 E8.11686
G1 X137.937 Y152.546 E8.11862
G1 X137.19 Y152.506 E8.1343
G1 X136.452 Y152.387 E8.14996
G1 X135.73 Y152.189 E8.16565
G1 X135.034 Y151.916 E8.18131
G1 X134.371 Y151.569 E8.19699
G1 X133.748 Y151.154 E8.21268
G1 X132.987 Y150.496 E8.23376
G1 X132.55 Y150.059 E8.24671
G1 X132.05 Y149.502 E8.26239
G1 X131.613 Y148.896 E8.27805
G1 X131.242 Y148.246 E8.29373
G1 X130.943 Y147.56 E8.30941
G1 X130.719 Y146.846 E8.32509
G1 X130.572 Y146.113 E8.34076
G1 X130.534 Y145.586 E8.35183
G1 X130.127 Y145.255 E8.36282
G1 X129.6 Y144.723 E8.37851
G1 X129.133 Y144.139 E8.39418
G1 X128.731 Y143.508 E8.40986
G1 X128.399 Y142.838 E8.42552
G1 X128.172 Y142.236 E8.43901
G1 X127.553 Y140.336 E8.48088
G1 X127.36 Y139.614 E8.49654
G1 X127.245 Y138.875 E8.51221
G1 X127.209 Y138.127 E8.5279
G1 X127.253 Y137.381 E8.54356
G1 X127.377 Y136.643 E8.55924
G1 X127.553 Y136 E8.57321
G1 X128.172 Y134.1 E8.61508
G1 X128.442 Y133.402 E8.63076
G1 X128.784 Y132.737 E8.64643
G1 X129.195 Y132.112 E8.66211
G1 X129.671 Y131.534 E8.6778
G1 X130.206 Y131.011 E8.69347
G0 F6000 X130.549 Y131.243
G1 F1200 X130.943 Y130.933 E8.70398
G1 X132.562 Y129.754 E8.74594
G1 X133.172 Y129.359 E8.76117
G1 X133.821 Y129.034 E8.77638
G1 X134.502 Y128.782 E8.7916
G1 X135.207 Y128.607 E8.80682
G1 X135.927 Y128.51 E8.82204
G1 X136.447 Y128.489 E8.83294
G1 X138.447 Y128.489 E8.87485
G1 X139.172 Y128.529 E8.89007
G1 X139.889 Y128.648 E8.9053
G1 X140.588 Y128.846 E8.92052
G1 X141.261 Y129.119 E8.93574
G1 X141.9 Y129.464 E8.95095
G1 X142.332 Y129.754 E8.96186
G1 X143.951 Y130.933 E9.00382
G1 X144.514 Y131.392 E9.01904
G1 X144.57 Y131.436 E9.02054
